svgs/solid/head-side-medical.svg

<svg xmlns="http://www.w3.org/2000/svg" viewBox="0 0 512 512"><!--! Font Awesome Pro 6.0.0-alpha3 by @fontawesome - https://fontawesome.com License - https://fontawesome.com/license (Commercial License) --><path d="M509.2 275c-21-47.13-48.5-151.8-73.12-186.8C397.1 32.88 333.7 0 266.1 0H192C86 0 0 86 0 192c0 54.5 23.25 106.5 64 142.9L64 512h256l-.0052-64h63.99c35.38 0 63.1-28.62 63.1-63.1V320h31.1c10.88 0 20.89-5.5 26.77-14.62C512.8 296.4 513.6 284.9 509.2 275zM336 218c0 8.836-7.164 16-16 16h-54V288c0 8.836-7.164 16-16 16h-52C189.2 304 182 296.8 182 288V234H128c-8.836 0-16-7.164-16-16v-52c0-8.836 7.164-16 16-16h54V96c0-8.836 7.165-16 16-16h52c8.836 0 16 7.164 16 16v54h54c8.836 0 16 7.164 16 16V218z"/></svg>

<svg xmlns="http://www.w3.org/2000/svg" viewBox="0 0 512 512"><!-- Font Awesome Pro 6.0.0-alpha2 by @fontawesome - https://fontawesome.com License - https://fontawesome.com/license (Commercial License) --><path d="M509.256 275C488.256 227.875 460.756 123.25 436.131 88.25C397.13 32.875 333.754 0 266.128 0H192.002C86.001 0 0 86 0 192C0 246.5 23.25 298.5 64.001 334.875V512H320.004V448H384.005C419.38 448 448.006 419.375 448.006 384V320H480.006C490.881 320 500.881 314.5 506.756 305.375C512.757 296.375 513.632 284.875 509.256 275ZM336.004 218C336.004 226.836 328.84 234 320.004 234H266.003V288C266.003 296.836 258.839 304 250.003 304H198.002C189.166 304 182.002 296.836 182.002 288V234H128.002C119.166 234 112.001 226.836 112.001 218V166C112.001 157.164 119.166 150 128.002 150H182.002V96C182.002 87.164 189.166 80 198.002 80H250.003C258.839 80 266.003 87.164 266.003 96V150H320.004C328.84 150 336.004 157.164 336.004 166V218Z"/></svg>
